X: 263
T: Gather and go to Charlie
R: jig, march
M: 6/8
L: 1/8
Z: 2011 John Chambers <jc:trillian.mit.edu>
B: Abraham Mackintosh "A Collection of Strathspeys, Reels, Jigs &c.", Newcastle, after 1797, p.26
F: http://imslp.info/files/imglnks/usimg/a/a8/IMSLP80796-PMLP164326-Abraham_Mackintosh_coll.pdf
Q: "Slow"
K: Dm
V: 1
f |\
cA>TA cG>TG | cA>TA d>ef | cA>TA  cG>TG | Te3  d>ef | cA>A cG>G |
c<Ac d>ef | c<AA c<GG | e3 d2 :: c | c>de f2d | (e//f//g3/)f {f}e2d |
c>de f>gf | e3 d2c | c>de f>gf | e>dc d>ef | c<AA c<GG | e3 d2 :|
V: 2 clef=bass middle=d
z |\
f3 e2c' | a2f b3 | a2f e2b | (a>fe/d/) d2z | f2f e2c |
A2F B2b | a2f e2e' | ^c'>=ba d'2 :: z | [a2f6]g a2=b | [c'3c3] [gc2]c'_b |
a2^c d>ef/g/ | a2A d2e | [af3]>bg [a2f2][=bd] | [c'2c2]a b2B |  A2f e2c | G2A d2 :|
